!!!Melodie: eigene
!!!Typ: Lied
**kern	**silbe	**silbe	**silbe	**silbe	**silbe	**silbe	**silbe	**silbe	**silbe	**silbe	**silbe	**silbe	**silbe	**silbe	**silbe
*clefG2	*lang:DE	*lang:DE	*lang:DE	*lang:DE	*lang:DE	*lang:DE	*lang:DE	*lang:DE	*lang:DE	*lang:DE	*lang:DE	*lang:DE	*lang:DE	*lang:DE	*lang:DE
*k[f#, c#, g#]	*	*	*	*	*	*	*	*	*	*	*	*	*	*	*
*M4/4	*	*	*	*	*	*	*	*	*	*	*	*	*	*	*
*met(c)	*	*	*	*	*	*	*	*	*	*	*	*	*	*	*
4r	%	%	%	%	%	%	%	%	%	%	%	%	%	%	%
4ee	Geh	Die	Die	Die	Die	Die	Der	ich	Ach!	Welch	O	Doch	Hilf	Mach	Er#
4cc#	aus	Bäu#	Ler#	Gluk#	Bäch#	un#	Wei#	selb#	denk’	ho#	wär’	gleich#	mir	in	#wäh#
4ee	mein	#me	#che	#ke	#lein	#ver#	#zen	#sten	ich,	#he	ich	#wohl	und	mir	#le
=	=	=	=	=	=	=	=	=	=	=	=	=	=	=	=
4a	Herz	ste#	schwingt	führt	rau#	#droß#	wäch#	kann	bist	Luft,	da!	will	seg#	dei#	mich
8Lff#	und	#hen	sich	ihr	#schen	#'ne	#set	und	du	welch	O	ich,	#ne	#nem	zum
8Jb	|	|	|	|	|	|	|	|	|	|	|	|	|	|	|
4cc#	su#	vol#	in	Völk#	in	Bie#	mit	mach	hier	ho#	stünd’	weil	mei#	Gei#	Pa#
8Lb	#che	#ler	die	#lein	dem	#nen#	Ge#	nicht	so	#her	ich	ich	#nen	#ste	#ra#
8Ja	|	|	|	|	|	|	|	|	|	|	|	|	|	|	|
=	=	=	=	=	=	=	=	=	=	=	=	=	=	=	=
4;a	Freud’	Laub,	Luft,	aus,	Sand,	#schar	#walt,	ruh’n;	schön	Schein	schon	noch	Geist	Raum,	#deis,
4cc#	in	das	das	der	und	fliegt	da#	des	und	wird	ach!	hier	mit	dass	und
4cc#	die#	Erd#	Täub#	Storch	ma#	hin	#rü#	gro#	läs#	wohl	Sü#	tra#	Se#	ich	lass
8Lcc#	#ser	#reich	#lein	baut	#len	und	#ber	#ßen	#set	in	#ßer	#ge	#gen,	dir	mich
8Jb	|	|	|	|	|	|	|	|	|	|	|	|	|	|	|
=	=	=	=	=	=	=	=	=	=	=	=	=	=	=	=
4b	lie#	dek#	fliegt	und	sich	her,	jauch#	Got#	uns	Chris#	Gott,	die#	der	werd’	bis
4ee	#ben	#ket	aus	be#	in	sucht	#zet	#tes	so	#ti	vor	#ses	vom	ein	zur
4.a	Som#	sei#	sei#	#wohnt	ih#	hier	jung	gro#	lieb#	Gar#	dei#	Lei#	Him#	gu#	letz#
8b	#mer#	#nen	#ner	sein	#rem	und	und	#ßes	#lich	#ten	#nem	#bes	#mel	#ter	#ten
=	=	=	=	=	=	=	=	=	=	=	=	=	=	=	=
4;g	#zeit	Staub	Kluft	Haus,	Rand	da	alt	Tun	geh’n	sein!	Thron	Joch,	fließt,	Baum,	Reis’
4e	an	mit	und	das	mit	ihr’	und	er#	auf	Wie	und	auch	dass	und	an
4a	dei#	ei#	macht	Schwälb#	schat#	ed#	rühmt	#weckt	die#	wird	trü#	nicht	ich	lass	Leib
4a	#nes	#nem	sich	#lein	#ten#	#le	die	mir	#ser	es	#ge	gar	dir	mich	und
=	=	=	=	=	=	=	=	=	=	=	=	=	=	=	=
4.a	Got#	grü#	in	speist	#rei#	Ho#	gro#	al#	arm#	da	mei#	stil#	ste#	wohl	See#
8g	#tes	#nen	die	die	#chen	#nig#	#ße	#le	#en	wohl	#ne	#le	#tig	be#	#le
4g	Ga#	Klei#	Wäl#	Jun#	Myr#	#spei#	Gü#	Sin#	Er#	klin#	Pal#	schwei#	blü#	#klei#	grü#
4;g	#ben:	#de.	#der:	#gen:	#ten:	#se:	#te	#nen.	#den:	#gen,	#men!	#gen:	#he:	#ben:	#nen:
=	=	=	=	=	=	=	=	=	=	=	=	=	=	=	=
4r	%	%	%	%	%	%	%	%	%	%	%	%	%	%	%
4b	schau	Nar#	die	der	Die	Des	des,	ich	was	da	So	mein	gib,	ver#	so
4b	an	#cis#	hoch#	schnel#	Wie#	sü#	der	sin#	will	so	wollt’	Her#	dass	#lei#	will
4dd	der	#sen	#be#	#le	#sen	#ßen	so	#ge	doch	viel’	ich	#ze	der	#he,	ich
=	=	=	=	=	=	=	=	=	=	=	=	=	=	=	=
8Ldd	schö#	und	#gab#	Hirsch,	lie#	Wein#	ü#	mit,	wohl,	tau#	nach	soll	Som#	dass	dir
8Jcc#	|	|	|	|	|	|	|	|	|	|	|	|	|	|	|
4dd	#nen	die	#te	das	#gen	#stocks	#ber#	wenn	nach	#send	der	sich	#mer	zu	und
4.cc#	Gär#	Tu#	Nach#	leich#	hart	star#	#flüs#	al#	die#	Se#	En#	fort	dei#	dei#	dei#
8b	#ten	#li#	#ti#	#te	da#	#ker	#sig	#les	#ser	#ra#	#gel	und	#ner	#nem	#ner
=	=	=	=	=	=	=	=	=	=	=	=	=	=	=	=
4;b	Zier,	#pan	#gall	Reh	#bei,	Saft,	labt	singt,	Welt,	#phim	Weis’	fort,	Gnad’	Ruhm,	Ehr’
4dd	und	die	er#	ist	und	bringt	und	und	dort	mit	er#	an	in	ich	al#
4dd	sie#	zie#	#götzt	froh	klin#	täg#	mit	las#	in	un#	#hö#	die#	mei#	dei#	#lein,
4dd	#he,	#hen	und	und	#gen	#lich	so	#se,	dem	#ver#	#hem	#sem	#ner	#nes	und
=	=	=	=	=	=	=	=	=	=	=	=	=	=	=	=
4cc#	wie	sich	füllt	kommt	ganz	neu#	man#	was	fes#	#droß#	dei#	und	See#	Gar#	sons#
8Lb	sie	viel	mit	aus	vom	#e	#chem	dem	#ten	#'nem	#nes	an	#len	#tens	#ten
8Ja	|	|	|	|	|	|	|	|	|	|	|	|	|	|	|
4g#	mir	schö#	ih#	sei#	Luft#	Stärk’	Gut	Höch#	Him#	Mund	Na#	al#	früh	schö#	kei#
8La	und	#ner	#rem	#ner	#ge#	und	be#	#sten	#mels#	und	#mens	#lem	und	#ne	#nem
8Jb	|	|	|	|	|	|	|	|	|	|	|	|	|	|	|
=	=	=	=	=	=	=	=	=	=	=	=	=	=	=	=
4;b	dir	an,	Schall	Höh’	#schrei	Kraft,	#gabt	klingt,	#zelt	Stimm’	Preis	Ort	spat	Blum’	mehr,
4ee	sich	als	Berg’,	ins	der	in	das	aus	und	ihr	mit	zu	viel	und	hier
4.f#	aus#	Sa#	Hü#	tie#	Schaf’	sei#	mensch#	mei#	güld#	Hal#	tau#	dei#	Glau#	Pflan#	und
8dd	#ge#	#lo#	#gel,	#fe	und	#ne	#li#	#nem	#'nen	#le#	#send	#nem	#bens#	#ze	dort
=	=	=	=	=	=	=	=	=	=	=	=	=	=	=	=
8Lg#	#schmük#	#mo#	Tal	Gras	ih#	schwa#	#che	Her#	Schlos#	#lu#	schö#	Lo#	#frücht'	mö#	e#
8Je	|	|	|	|	|	|	|	|	|	|	|	|	|	|	|
8La	#ket	#nis	und	ge#	#rer	#che	Ge#	#zen	#se	#ja	#ne	#be	er#	#ge	#wig
8Jb	|	|	|	|	|	|	|	|	|	|	|	|	|	|	|
(4cc#	ha#	Sei#	Fel#	#sprun#	Hir#	Rei#	#mü#	rin#	wer#	sin#	Psal#	nei#	#zie#	blei#	die#
8Lb	|	|	|	|	|	|	|	|	|	|	|	|	|	|	|
8Ja)	|	|	|	|	|	|	|	|	|	|	|	|	|	|	|
=	=	=	=	=	=	=	=	=	=	=	=	=	=	=	=
1;cc#	#ben.	#de.	#der.	#gen.	#ten.	#fe.	#te.	#nen.	#den!	#gen.	#men.	#gen.	#he.	#ben!	#nen.
==	==	==	==	==	==	==	==	==	==	==	==	==	==	==	==
*-	*-	*-	*-	*-	*-	*-	*-	*-	*-	*-	*-	*-	*-	*-	*-
